!!!!SEGMENT: pl-kk--kk-i-7--062_asola-giovanni-matteo--tradent-enim-vos-in-conciliis.krn
!!!cenid: 16xx:901
!!!COM: Asola, Giovanni Matteo
!!!COM-rismid: pe20000387
!!!CDT: <=1532-1609/10/01
!!!CNT: Italian
!!!OTL: Tradent enim vos in conciliis
!!!PDT:
!!!AGN: Sacred
!!!SMS-siglum: PL-Kk
!!!SMS-shelfmark: Kk.I.7
!!!SMS-shelfwork: 062 W
!!!SMS-variant:
!!!SMS-altvar:
!!!NIFC-rismid: 300258139
!!!URL-scan: http://repozytorium.nifc.pl/skany/pl-kk-nut--i-7
!!!ONB-nifc: UWAGA: C (skan 0060, s.113), A (0146, s.113), T(0223, s.109), B(0310, s.107). Następny utwór: Exaudisti Domine
!!!AIN: 1 alto 1 bass 1 soprn 1 tenor
!!!key:
**kern	**text	**kern	**text	**kern	**text	**kern	**text
*part4	*part4	*part3	*part3	*part2	*part2	*part1	*part1
*staff4	*staff4	*staff3	*staff3	*staff2	*staff2	*staff1	*staff1
*Ibass	*	*Itenor	*	*Ialto	*	*Isoprn	*
*I"[BASSVS.]	*	*I"[TENOR.]	*	*I"[ALTVS.]	*	*I"[CANTVS.]	*
*I'[B]	*	*I'[T]	*	*I'[A]	*	*I'[C]	*
*clefC4	*	*clefC3	*	*clefC3	*	*clefC2	*
*k[b-]	*	*k[b-]	*	*k[b-]	*	*k[b-]	*
*g:	*	*g:	*	*g:	*	*g:	*
*M2/1	*	*M2/1	*	*M2/1	*	*M2/1	*
*met(C|)	*	*met(C|)	*	*met(C|)	*	*met(C|)	*
=1-	=1-	=1-	=1-	=1-	=1-	=1-	=1-
!!LO:TX:t=P:problem:all\right
!	!	!	!	!	!	!LO:TX:t=P:problem=znaki przykluczowe [b-b-]	!
0r	.	1.G	Tra-	0r	.	0r	.
!	!	!LO:TX:t=P:problem=kreska pseudotaktowa	!	!	!	!	!
.	.	2F/	-dent	.	.	.	.
=2-	=2-	=2-	=2-	=2-	=2-	=2-	=2-
!	!	!	!	!LO:TX:t=P:problem=kreska pseudotaktowa	!	!	!
0r	.	2B-/	e-	1r	.	0r	.
*	*	*2\right	*	*	*	*	*
.	.	2c\	-nim	.	.	.	.
.	.	2.d\	Vos	1.G	TRa-	.	.
!	!	!LO:TX:t=P:problem=kreska pseudotaktowa	!	!	!	!	!
.	.	4e\	in	.	.	.	.
=3-	=3-	=3-	=3-	=3-	=3-	=3-	=3-
0r	.	1.f	con-	.	.	0r	.
.	.	.	.	2F/	-dent	.	.
.	.	.	.	2B-/	e-	.	.
!	!	!LO:TX:t=P:problem=kreska pseudotaktowa	!	!LO:TX:t=P:problem=kreska pseudotaktowa	!	!	!
.	.	2e\	.	2c/	-nim	.	.
=4-	=4-	=4-	=4-	=4-	=4-	=4-	=4-
*	*	*	*	*2\right	*	*	*
!	!	!	!	!	!	!LO:TX:t=P:problem=kreska pseudotaktowa	!
0r	.	4f\	.	2d\	Vos	1r	.
.	.	4e\	.	.	.	.	.
.	.	4d\	.	2.d\	in	.	.
.	.	4c/	.	.	.	.	.
.	.	2B-/	-ci-	.	.	1.d	Tra-
.	.	.	.	4e\	.	.	.
.	.	2B-/	-li-	1f\	.	.	.
=5-	=5-	=5-	=5-	=5-	=5-	=5-	=5-
!LO:TX:t=P:problem=kreska pseudotaktowa	!	!LO:TX:t=P:problem=kreska pseudotaktowa	!	!	!	!	!
0r	.	1A	-is	.	.	.	.
!	!	!	!	!LO:TX:t=P:problem=kreska pseudotaktowa	!	!	!
.	.	.	.	2e\	con-	2c/	-dent
*	*	*	*	*	*	*2\right	*
.	.	1r	.	2d\	-ci-	2f\	e-
!	!	!	!	!	!	!LO:TX:t=P:problem=kreska pseudotaktowa	!
.	.	.	.	4c/	-li-	2g\	-nim
!	!	!	!	!LO:TX:t=P:problem=kreska pseudotaktowa	!	!	!
.	.	.	.	4B-/	.	.	.
=6-	=6-	=6-	=6-	=6-	=6-	=6-	=6-
1.D	Tra-	2.d\	tra-	2A,/	-is	2a,\	vos
.	.	.	.	1f	Tra-	2.a\	in
.	.	4e\	.	.	.	.	.
.	.	2f\	.	.	.	.	.
.	.	.	.	.	.	4b-\	.
!	!	!LO:TX:t=P:problem=kreska pseudotaktowa	!	!LO:TX:t=P:problem=kreska pseudotaktowa	!	!	!
2C/	-dent	2e\	-dent	2g\	.	1cc\	con-
=7-	=7-	=7-	=7-	=7-	=7-	=7-	=7-
2F/	e-	2f\	e-	2a\	-dent	.	.
!LO:TX:t=P:problem=kreska pseudotaktowa	!	!	!	!	!	!LO:TX:t=P:problem=kreska pseudotaktowa	!
2G/	-nim	2d\	-nim	4g\	e-	2b-\	-ci-
!	!	!	!	!LO:TX:t=P:problem=kreska pseudotaktowa	!	!	!
.	.	.	.	4f\	.	.	.
!	!	!LO:TX:t=P:problem=kreska pseudotaktowa	!	!	!	!	!
1A	Vos	1c	Vos	2e\	.	4cc\	.
.	.	.	.	.	.	4b-\	.
.	.	.	.	2e\	-nim	4a\	.
!	!	!	!	!	!	!LO:TX:t=P:problem=kreska pseudotaktowa	!
.	.	.	.	.	.	4g\	.
=8-	=8-	=8-	=8-	=8-	=8-	=8-	=8-
*2\right	*	*	*	*	*	*	*
2B-\	in	2r	.	2d\	Vos	4f\	.
.	.	.	.	.	.	4g\	.
!	!	!	!	!LO:TX:t=P:problem=kreska pseudotaktowa	!	!	!
2A/	con-	1c	in	2e\	in	2.a\	.
2F/	-ci-	.	.	2f\	con-	.	.
.	.	.	.	.	.	4g\	.
2G/	-li-	2B-/	con-	1d\	-ci-	1g\	.
=9-	=9-	=9-	=9-	=9-	=9-	=9-	=9-
!LO:TX:t=P:problem=kreska pseudotaktowa	!	!	!	!	!	!	!
1D	-is	2A/	-ci-	.	.	.	.
*	*	*custos:g	*	*	*	*	*
!	!	!LO:TX:t=P:problem=kreska pseudotaktowa	!	!LO:TX:t=P:problem=kreska pseudotaktowa	!	!	!
.	.	2A/	-li-	2d\	-li-	2f\	-li-
!	!	!	!	!	!	!LO:TX:t=P:problem=kreska pseudotaktowa	!
!	!	!LO:LB:g=original	!	!	!	!	!
!	!	!LO:TX:t=P:problem=kreska pseudotaktowa	!	!	!	!	!
2r	.	1G	-is	2d,<\	-is	1g	-is
*	*ij	*	*	*	*	*	*
1G/	Tra-	.	.	1B-/	Tra-	.	.
=10-	=10-	=10-	=10-	=10-	=10-	=10-	=10-
.	.	0r	.	.	.	2r	.
!LO:TX:t=P:problem=kreska pseudotaktowa	!	!	!	!LO:TX:t=P:problem=kreska pseudotaktowa	!	!LO:TX:t=P:problem=kreska pseudotaktowa	!
2F/	-dent	.	.	2c/	-dent	2a\	in
2B-\	e-	.	.	2d\	e-	2b-\	con-
*	*	*	*	*custos:f	*	*	*
2c\	-nim	.	.	2e\	-nim	2.a\	-ci-
=11-	=11-	=11-	=11-	=11-	=11-	=11-	=11-
!	!	!	!	!LO:LB:g=original	!	!	!
!LO:TX:t=P:problem=kreska pseudotaktowa	!	!LO:TX:t=P:problem=kreska pseudotaktowa	!	!LO:TX:t=P:problem=kreska pseudotaktowa	!	!	!
1d	Vos	1r	.	1f	Vos	.	.
.	.	.	.	.	.	8g\L	.
.	.	.	.	.	.	8a\J	.
.	.	.	.	.	.	2.b-\	.
*	*	*	*ij	*	*	*	*
2.B-\	in-	1d	in	2r	.	.	.
.	.	.	.	.	.	4a\	.
!	!	!	!	!	!	!LO:TX:t=P:problem=kreska pseudotaktowa	!
.	.	.	.	1B-/	in-	2f\	.
4A/	.	.	.	.	.	.	.
=12-	=12-	=12-	=12-	=12-	=12-	=12-	=12-
*	*	*	*	*	*	*custos:a	*
2G/	.	2d\	con-	.	.	2g\	.
!	!	!	!	!	!	!LO:LB:g=original	!
!	!	!	!	!LO:TX:t=P:problem=kreska pseudotaktowa	!	!	!
2F/	-con-	2.f\	-ci-	2c/	-con-	1a	.
1B-	-ci-	.	.	1d	-ci-	.	.
.	.	4e\	.	.	.	.	.
.	.	1d\	.	.	.	2g\	-li-
=13-	=13-	=13-	=13-	=13-	=13-	=13-	=13-
!	!	!	!	!	!	!LO:TX:t=P:problem=kreska pseudotaktowa	!
!	!	!	!	!LO:TX:t=P:legato?:problem	!	!	!
1A	-li-	.	.	(1e	-li-	1a	-is
.	.	2c\	-li-	.	.	.	.
!LO:TX:t=P:problem=kreska pseudotaktowa	!	!LO:TX:t=P:problem=kreska pseudotaktowa	!	!	!	!	!
0.D	-is	1d	-is	1f)	.	2r	.
*	*Xij	*	*Xij	*	*	*	*
.	.	.	.	.	.	1a\	et
=14-	=14-	=14-	=14-	=14-	=14-	=14-	=14-
!	!	!	!	!LO:TX:t=P:problem=kreska pseudotaktowa	!	!	!
.	.	2r	.	1d	-is	.	.
!	!	!	!	!	!	!LO:TX:t=P:problem=kreska pseudotaktowa	!
.	.	1d	et	.	.	2a\	in
.	.	.	.	0r	.	2b-\	Sy-
!	!	!LO:TX:t=P:problem=kreska pseudotaktowa	!	!	!	!	!
.	.	2d\	in	.	.	2a\	-na-
=15-	=15-	=15-	=15-	=15-	=15-	=15-	=15-
0r	.	2e-X\	Sy-	.	.	2g\	-go-
!	!	!	!	!	!	!LO:TX:t=P:problem=kreska pseudotaktowa	!
.	.	2d\	-na-	.	.	2f\	.
!	!	!	!	!LO:TX:t=P:problem=kreska pseudotaktowa	!	!	!
.	.	2c/	-go-	1r	.	2e/	-gis
!	!	!LO:TX:t=P:problem=kreska pseudotaktowa	!	!	!	!	!
.	.	2B-/	-gis	.	.	2.g\	Su-
=16-	=16-	=16-	=16-	=16-	=16-	=16-	=16-
0r	.	2c/	Su-	2r	.	.	.
.	.	.	.	.	.	8f\L	.
.	.	.	.	.	.	8e\J	.
.	.	2d\	.	1d	et	2f\	-is
!	!	!LO:TX:t=P:problem=kreska pseudotaktowa	!	!	!	!LO:TX:t=P:problem=kreska pseudotaktowa	!
.	.	0G	-is	.	.	1g	.
!	!	!	!	!LO:TX:t=P:problem=kreska pseudotaktowa	!	!	!
.	.	.	.	2d\	in	.	.
=17-	=17-	=17-	=17-	=17-	=17-	=17-	=17-
!LO:TX:t=P:problem=kreska pseudotaktowa	!	!	!	!	!	!	!
0r	.	.	.	2e-X\	Sy-	2r	.
!	!	!	!	!LO:TX:t=P:problem=kreska pseudotaktowa	!	!	!
*	*	*	*	*	*	*	*ij
.	.	.	.	2d\	-na-	1g	et
.	.	0r	.	2c/	-go-	.	.
.	.	.	.	2B-/	-gis	2g\	in
=18-	=18-	=18-	=18-	=18-	=18-	=18-	=18-
1.A	et	.	.	2c/	Su-	2f\	Sy-
!	!	!	!	!	!	!LO:TX:t=P:problem=kreska pseudotaktowa	!
.	.	.	.	1d	.	2f\	-na-
.	.	0r	.	.	.	2.e/	-go-
*custos:e	*	*	*	*	*	*	*
!LO:TX:t=P:problem=kreska pseudotaktowa	!	!	!	!LO:TX:t=P:problem=kreska pseudotaktowa	!	!	!
2A/	in	.	.	2c/	.	.	.
.	.	.	.	.	.	4f\	.
=19-	=19-	=19-	=19-	=19-	=19-	=19-	=19-
!LO:LB:g=original	!	!	!	!	!	!	!
2B-\	Sy-	.	.	2d\	.	2g\	.
!	!	!	!	!	!	!LO:TX:t=P:problem=kreska pseudotaktowa	!
2A/	-na-	.	.	2.eny\	.	2a\	-gis
2G/	-go-	2r	.	.	.	2b-\	Su-
.	.	.	.	8d\L	.	.	.
.	.	.	.	8e\J	.	.	.
!LO:TX:t=P:problem=kreska pseudotaktowa	!	!LO:TX:t=P:problem=kreska pseudotaktowa	!	!	!	!	!
2F/	-gis	2A/	fla-	2f\	.	2a\	.
=20-	=20-	=20-	=20-	=20-	=20-	=20-	=20-
*lig	*	*	*	*	*	*	*
!	!	!	!	!LO:TX:t=P:problem=kreska pseudotaktowa	!	!	!
1G	Su-	2B-/	-gel-	1d	-is	2.g\	.
.	.	1d	-la-	.	.	.	.
.	.	.	.	.	.	4f\	.
!	!	!	!	!LO:TX:t=P:problem=kreska pseudotaktowa	!	!	!
1A	.	.	.	1r	.	1e	.
.	.	2c/	-bunt	.	.	.	.
*Xlig	*	*	*	*	*	*	*
=21-	=21-	=21-	=21-	=21-	=21-	=21-	=21-
!LO:TX:t=P:problem=kreska pseudotaktowa	!	!LO:TX:t=P:problem=kreska pseudotaktowa	!	!	!	!LO:TX:t=P:problem=kreska pseudotaktowa	!
1D	-is	1d	Vos	2.f\	fla-	1d	-is
*	*	*	*	*	*	*	*Xij
.	.	.	.	4g\	-gel-	.	.
*	*	*	*ij	*	*	*	*
2.F/	fla-	2.A/	fla-	2a\	-la-	1r	.
.	.	.	.	2f\	bunt	.	.
4G/	-gel-	4B-/	-gel-	.	.	.	.
=22-	=22-	=22-	=22-	=22-	=22-	=22-	=22-
!	!	!	!	!LO:TX:t=P:problem=kreska pseudotaktowa	!	!	!
1A	-la-	2c/	-la-	1e	Vos	1r	.
.	.	2c/	-bunt	.	.	.	.
*	*	*custos:a	*	*	*	*	*
!	!	!LO:TX:t=P:problem=kreska pseudotaktowa	!	!	!	!	!
1B-	-bunt	1d	Vos	2r	.	2.f\	fla-
*	*	*	*	*custos:e	*	*	*
.	.	.	.	2d\	fla-	.	.
*	*	*	*	*	*	*custos:a	*
!	!	!	!	!	!	!LO:TX:t=P:problem=kreska pseudotaktowa	!
.	.	.	.	.	.	4g\	-gel-
=23-	=23-	=23-	=23-	=23-	=23-	=23-	=23-
!	!	!LO:LB:g=original	!	!LO:LB:g=original	!	!LO:LB:g=original	!
!LO:TX:t=P:problem=kreska pseudotaktowa	!	!LO:TX:t=P:problem=kreska pseudotaktowa	!	!	!	!	!
0A	Vos	1r	.	2e\	-gel-	2a\	-la-
.	.	.	.	1a	-la-	2f\	-bunt
!	!	!	!	!	!	!LO:TX:t=P:problem=kreska pseudotaktowa	!
.	.	2.A/	fla-	.	.	1e	Vos
.	.	.	.	4g\	.	.	.
!	!	!	!	!LO:TX:t=P:problem=kreska pseudotaktowa	!	!	!
.	.	4B-/	-gel-	4f\	.	.	.
=24-	=24-	=24-	=24-	=24-	=24-	=24-	=24-
1r	.	2c/	-la-	2e\	.	0r	.
.	.	2c/	-bunt	2e\	-bunt	.	.
!	!	!LO:TX:t=P:problem=kreska pseudotaktowa	!	!LO:TX:t=P:problem=kreska pseudotaktowa	!	!	!
2.B-\	Fla-	0d	Vos	1f	Vos;	.	.
*	*	*	*Xij	*	*	*	*
4c\	-gel-	.	.	.	.	.	.
=25-	=25-	=25-	=25-	=25-	=25-	=25-	=25-
*	*	*	*	*	*	*	*ij
2d\	-la-	.	.	2r	.	2.f\	fla-
!LO:TX:t=P:problem=kreska pseudotaktowa	!	!	!	!LO:TX:t=P:problem=kreska pseudotaktowa	!	!	!
2B-\	-bunt	.	.	2d\	et	.	.
.	.	.	.	.	.	4g\	-gel-
2A,</	Vos	0r	.	2e\	an-	2a\	-la-
!	!	!	!	!	!	!LO:TX:t=P:problem=kreska pseudotaktowa	!
2D/	et	.	.	4f\	-te	2f\	-bunt
.	.	.	.	2d\	Re-	.	.
=26-	=26-	=26-	=26-	=26-	=26-	=26-	=26-
2A/	an-	.	.	.	.	1.e	Vos
*	*	*	*	*	*	*	*Xij
.	.	.	.	8c/L	.	.	.
.	.	.	.	8B-/J	.	.	.
!LO:TX:t=P:problem=kreska pseudotaktowa	!	!	!	!LO:TX:t=P:problem=kreska pseudotaktowa	!	!	!
2A/	-te	.	.	2c/	.	.	.
1B-	Re-	0r	.	2d\	-ges	.	.
!	!	!	!	!	!	!LO:TX:t=P:problem=kreska pseudotaktowa	!
.	.	.	.	2d\	et	2d/	et
=27-	=27-	=27-	=27-	=27-	=27-	=27-	=27-
2A/	-ges	.	.	2.c/	Prae-	2a\	an-
!LO:TX:t=P:problem=kreska pseudotaktowa	!	!	!	!	!	!	!
2F/	et	.	.	.	.	2a\	-te
.	.	.	.	4c/	-si-	.	.
!	!	!	!	!LO:TX:t=P:problem=kreska pseudotaktowa	!	!	!
2.G/	Prae-	2r	.	1B-	-des	1b-	Re-
!	!	!LO:TX:t=P:problem=kreska pseudotaktowa	!	!	!	!	!
.	.	2G/	et	.	.	.	.
4G/	-si-	.	.	.	.	.	.
=28-	=28-	=28-	=28-	=28-	=28-	=28-	=28-
!LO:TX:t=P:problem=kreska pseudotaktowa	!	!	!	!	!	!	!
1D	-des	2d\	an-	0r	.	2a,\	-ges
!	!	!	!	!	!	!LO:TX:t=P:problem=kreska pseudotaktowa	!
.	.	2d\	-te	.	.	2f\	et
1rA	.	1e-X	Re-	.	.	2.g\	Prae-
.	.	.	.	.	.	4g\	-si-
=29-	=29-	=29-	=29-	=29-	=29-	=29-	=29-
2rF	.	2d\	-ges	0r	.	2f\	-des
!	!	!LO:TX:t=P:problem=kreska pseudotaktowa	!	!	!	!LO:TX:t=P:problem=kreska pseudotaktowa	!
2d\	et	2B-/	et	.	.	2b-\	du-
2e\	an-	2.c/	Prae-	.	.	4g\	.
.	.	.	.	.	.	4f\	.
*custos:g	*	*	*	*	*	*	*
!LO:TX:t=P:problem=kreska pseudotaktowa	!	!	!	!	!	!	!
2e\	-te	.	.	.	.	4g\	.
.	.	4c/	-si-	.	.	4a\	.
=30-	=30-	=30-	=30-	=30-	=30-	=30-	=30-
!	!	!LO:TX:t=P:problem=kreska pseudotaktowa	!	!	!	!	!
!LO:LB:g=original	!	!	!	!	!	!	!
1d	Re-	1G	-des	2r	.	2.b-\	.
!	!	!	!	!LO:TX:t=P:problem=kreska pseudotaktowa	!	!	!
*	*	*	*	*	*ij	*	*
.	.	.	.	2G/	et	.	.
.	.	.	.	.	.	4a\	.
!LO:TX:t=P:problem=kreska pseudotaktowa	!	!	!	!	!	!	!
1G	-ges	2r	.	2d\	an-	4g\	.
.	.	.	.	.	.	4f\	.
*	*	*	*ij	*	*	*	*
.	.	2B-/	et	2d\	-te	1g\	-ce
=31-	=31-	=31-	=31-	=31-	=31-	=31-	=31-
2r	.	2c/	an-	1e-X	Re-	.	.
!	!	!LO:TX:t=P:problem=kreska pseudotaktowa	!	!	!	!	!
*	*ij	*	*	*	*	*	*
2C/	et	2c/	-te	.	.	2g\	mi-
!	!	!	!	!	!	!LO:TX:t=P:problem=kreska pseudotaktowa	!
2G/	an-	1d	Re-	2d\	-ges	0g	-ni
!LO:TX:t=P:problem=kreska pseudotaktowa	!	!	!	!LO:TX:t=P:problem=kreska pseudotaktowa	!	!	!
2G/	-te	.	.	2B-/	et	.	.
=32-	=32-	=32-	=32-	=32-	=32-	=32-	=32-
2C/	Re-	1eny	-ges	2.c/	Prae-	.	.
1c	-ges	.	.	.	.	.	.
*	*Xij	*	*	*	*	*	*
.	.	.	.	4c/	-ſi-	.	.
!	!	!	!	!LO:TX:t=P:problem=kreska pseudotaktowa	!	!	!
.	.	2d\	et	1G	-des	1r	.
*	*	*	*	*	*Xij	*	*
!LO:TX:t=P:problem=kreska pseudotaktowa	!	!	!	!	!	!	!
2B-\	et	1g\	Prae-	.	.	.	.
=33-	=33-	=33-	=33-	=33-	=33-	=33-	=33-
2A/	Prae-	.	.	2r	.	1a	du-
2G/	-si-	2f\	-si-	2c/	du-	.	.
!LO:TX:t=P:problem=kreska pseudotaktowa	!	!LO:TX:t=P:problem=kreska pseudotaktowa	!	!	!	!	!
1G,<	-des	1g,	-des	2B-/	-ce	2.b-\	-ce-
*	*	*	*Xij	*	*	*	*
.	.	.	.	1d\	.	.	.
*	*	*	*	*	*	*custos:a	*
!	!	!	!	!	!	!LO:TX:t=P:problem=kreska pseudotaktowa	!
.	.	.	.	.	.	4b-\	-mi-
=34-	=34-	=34-	=34-	=34-	=34-	=34-	=34-
!	!	!	!	!	!	!LO:LB:g=original	!
1A	du-	2e\	du-	.	.	1a,	-ni
*	*	*	*	*custos:d	*	*	*
!	!	!	!	!LO:TX:t=P:problem=kreska pseudotaktowa	!	!	!
.	.	1f	-ce-	2c/	mi-	.	.
!	!	!	!	!LO:LB:g=original	!	!	!
!	!	!	!	!LO:TX:t=P:problem=kreska pseudotaktowa	!	!	!
2.B-\	-ce-	.	.	1d	-ni	2f\	p(ro)-
!	!	!LO:TX:t=P:problem=kreska pseudotaktowa	!	!	!	!	!
.	.	2d\	-mi-	.	.	2g\	-p(ter)
4B-\	-mi-	.	.	.	.	.	.
=35-	=35-	=35-	=35-	=35-	=35-	=35-	=35-
*	*	*custos:f	*	*	*	*	*
!	!	!	!	!	!	!LO:TX:t=P:problem=kreska pseudotaktowa	!
2A/	-ni	2e\	-ni	2r	.	1a	me
!	!	!LO:LB:g=original	!	!	!	!	!
1F	pro-	1f	p(ro)-	1c	pro-	.	.
.	.	.	.	.	.	2r	.
!LO:TX:t=P:problem=kreska pseudotaktowa	!	!	!	!LO:TX:t=P:problem=kreska pseudotaktowa	!	!	!
2G/	-pter	2d\	-p(ter)	2B-/	-pter	1g\	du-
=36-	=36-	=36-	=36-	=36-	=36-	=36-	=36-
*	*	*	*	*lig	*	*	*
!	!	!LO:TX:t=P:problem=kreska pseudotaktowa	!	!	!	!	!
1D	me	0d	me	1A	me	.	.
!	!	!	!	!	!	!LO:TX:t=P:problem=kreska pseudotaktowa	!
.	.	.	.	.	.	2f\	-ce-
2r	.	.	.	1G	.	2g\	-mi-
!LO:TX:t=P:problem=kreska pseudotaktowa	!	!	!	!	!	!	!
2d\	du-	.	.	.	.	1b-\	-ni
*	*	*	*	*Xlig	*	*	*
=37-	=37-	=37-	=37-	=37-	=37-	=37-	=37-
!	!	!	!	!LO:TX:t=P:problem=kreska pseudotaktowa	!	!	!
*	*	*	*	*	*ij	*	*
2.e\	-ce-	1r	.	1g	pro-	.	.
.	.	.	.	.	.	4a\	pro-
!	!	!	!	!	!	!LO:TX:t=P:problem=kreska pseudotaktowa	!
4e\	-mi-	.	.	.	.	4g\	.
2d\	-ni	2r	.	1.f	.	2a\	.
1B-\	p(ro)-	1d\	pro-	.	.	2.b-\	.
=38-	=38-	=38-	=38-	=38-	=38-	=38-	=38-
.	.	.	.	.	.	.	.
.	.	.	.	.	.	4a\	.
!	!	!LO:TX:t=P:problem=kreska pseudotaktowa	!	!	!	!	!
2c\	-p(ter)	2c/	-pter	2.eny\	.	2.g\	.
*	*	*lig	*	*	*	*	*
!LO:TX:t=P:problem=kreska pseudotaktowa	!	!	!	!	!	!	!
1G	me	1B-	me	.	.	.	.
.	.	.	.	4d\	.	4f\	.
.	.	.	.	1d\	-pter	4e/	.
!	!	!	!	!	!	!LO:TX:t=P:problem=kreska pseudotaktowa	!
.	.	.	.	.	.	4d/	.
=39-	=39-	=39-	=39-	=39-	=39-	=39-	=39-
!	!	!LO:TX:t=P:problem=kreska pseudotaktowa	!	!	!	!	!
1r	.	1A	.	.	.	2e/	.
!	!	!	!	!LO:TX:t=P:problem=kreska pseudotaktowa	!	!	!
.	.	.	.	2c/	.	2e/	-pter
*	*	*Xlig	*	*	*	*	*
!	!	!	!	!LO:TX:t=P:problem=kreska pseudotaktowa	!	!LO:TX:t=P:problem=kreska pseudotaktowa	!
2r	.	2r	.	1d	me	1d	me
*	*	*	*	*	*Xij	*	*
2D/	in	2d\	in	.	.	.	.
=40-	=40-	=40-	=40-	=40-	=40-	=40-	=40-
2E/	teſ-	2c/	teſ-	0r	.	1r	.
*custos:c	*	*	*	*	*	*	*
!LO:TX:t=P:problem=kreska pseudotaktowa	!	!LO:TX:t=P:problem=kreska pseudotaktowa	!	!	!	!	!
2F/	-ti-	2A/	-ti-	.	.	.	.
!LO:LB:g=original	!	!	!	!	!	!	!
1.G	-mo-	2.B-/	-mo-	.	.	2r	.
.	.	.	.	.	.	2d/	in
.	.	4B-/	-ni-	.	.	.	.
=41-	=41-	=41-	=41-	=41-	=41-	=41-	=41-
.	.	2G/	-um	2r	.	2e/	teſ-
!	!	!	!	!LO:TX:t=P:problem=kreska pseudotaktowa	!	!LO:TX:t=P:problem=kreska pseudotaktowa	!
2F/	-ni-	1d	il-	2A/	in	2f\	-ti-
1E	-um	.	.	2G/	teſ-	1.g	-mo-
.	.	2c/	.	2G/	-ti-	.	.
=42-	=42-	=42-	=42-	=42-	=42-	=42-	=42-
*lig	*	*	*	*	*	*	*
!	!	!LO:TX:t=P:problem=kreska pseudotaktowa	!	!	!	!	!
1D	il-	1d	-lis	2A/	-mo-	.	.
.	.	.	.	1d	.	2f\	-ni-
!	!	!	!	!	!	!LO:TX:t=P:problem=kreska pseudotaktowa	!
1A	.	0r	.	.	.	1e	-um
!	!	!	!	!LO:TX:t=P:problem=kreska pseudotaktowa	!	!	!
.	.	.	.	2c/	.	.	.
*Xlig	*	*	*	*	*	*	*
=43-	=43-	=43-	=43-	=43-	=43-	=43-	=43-
!LO:TX:t=P:problem=kreska pseudotaktowa	!	!	!	!	!	!	!
1D	-lis	.	.	2.d\	.	4d/	il-
.	.	.	.	.	.	4e/	.
.	.	.	.	.	.	4f\	.
.	.	.	.	4e\	.	4g\	.
2rF	.	2r	.	2f\	-ni-	2a\	.
!	!	!	!	!LO:TX:t=P:problem=kreska pseudotaktowa	!	!LO:TX:t=P:problem=kreska pseudotaktowa	!
*	*ij	*	*ij	*	*	*	*
2G/	in	2B-/	in	2g\	-um	2b-\	.
=44-	=44-	=44-	=44-	=44-	=44-	=44-	=44-
2A/	teſ-	2c/	teſ-	2e\	il-	2a\	.
*	*	*	*	*	*	*custos:g	*
!LO:TX:t=P:problem=kreska pseudotaktowa	!	!LO:TX:t=P:problem=kreska pseudotaktowa	!	!LO:TX:t=P:problem=kreska pseudotaktowa	!	!LO:TX:t=P:problem=kreska pseudotaktowa	!
2B-\	-ti-	2d\	-ti-	2d\	-lis	2g\	-lis
!	!	!	!	!	!	!LO:LB:g=original	!
1.c	-mo-	1.e-X	-mo-	1r	.	2r	.
!	!	!	!	!	!	!LO:TX:t=P:problem=kreska pseudotaktowa	!
.	.	.	.	.	.	2g\	in
=45-	=45-	=45-	=45-	=45-	=45-	=45-	=45-
.	.	.	.	2r	.	2a\	teſ-
!	!	!	!	!LO:TX:t=P:problem=kreska pseudotaktowa	!	!LO:TX:t=P:problem=kreska pseudotaktowa	!
*	*	*	*	*	*ij	*	*
2B-\	-ni-	2d\	-ni-	2d\	in	2b-\	-ti-
!	!	!LO:TX:t=P:problem=kreska pseudotaktowa	!	!	!	!	!
1A	-um	1c	-um	2e\	teſ-	1.cc	-mo-
.	.	.	.	2f\	-ti-	.	.
=46-	=46-	=46-	=46-	=46-	=46-	=46-	=46-
1G	il-	4d\	il-	1.g	-mo-	.	.
.	.	4G/	.	.	.	.	.
.	.	2.d\	.	.	.	2b-\	-ni-
!LO:TX:t=P:problem=kreska pseudotaktowa	!	!	!	!	!	!LO:TX:t=P:problem=kreska pseudotaktowa	!
1D	-lis	.	.	.	.	1a	-um
.	.	4c/	.	.	.	.	.
!	!	!	!	!LO:TX:t=P:problem=kreska pseudotaktowa	!	!	!
.	.	4A/	.	2f\	-ni-	.	.
*	*	*custos:c	*	*	*	*	*
!	!	!LO:TX:t=P:problem=kreska pseudotaktowa	!	!	!	!	!
.	.	4B-/	.	.	.	.	.
=47-	=47-	=47-	=47-	=47-	=47-	=47-	=47-
!	!	!LO:LB:g=original	!	!	!	!	!
1rA	.	1c	.	1e	-um	2.g\	il-
.	.	.	.	.	.	4a\	.
!	!	!LO:TX:t=P:problem=kreska pseudotaktowa	!	!	!	!	!
2rF	.	1G	-lis	2.d\	il-	1b-	.
*	*	*	*Xij	*	*	*	*
2G/	in	.	.	.	.	.	.
*	*	*	*	*custos:b	*	*	*
!	!	!	!	!LO:TX:t=P:problem=kreska pseudotaktowa	!	!	!
.	.	.	.	4c/	.	.	.
=48-	=48-	=48-	=48-	=48-	=48-	=48-	=48-
!	!	!	!	!LO:LB:g=original	!	!	!
2G/	teſ-	1r	.	4B-/	.	2g\	.
.	.	.	.	4G/	.	.	.
!LO:TX:t=P:problem=kreska pseudotaktowa	!	!	!	!	!	!	!
2F/	-ti-	.	.	2.d\	.	1a,	-lis
2.E/	-mo-	2r	.	.	.	.	.
.	.	.	.	8c/L	.	.	.
.	.	.	.	8B-/J	.	.	.
!	!	!	!	!LO:TX:t=P:problem=kreska pseudotaktowa	!	!LO:TX:t=P:problem=kreska pseudotaktowa	!
.	.	2G/	in	2c/	.	2g\	et
4E/	-ni-	.	.	.	.	.	.
=49-	=49-	=49-	=49-	=49-	=49-	=49-	=49-
!LO:TX:t=P:problem=kreska pseudotaktowa	!	!	!	!LO:TX:t=P:problem=kreska pseudotaktowa	!	!	!
1D	-um	2A/	teſ-	1d	-lis	2.f\	gen-
*	*	*	*	*	*Xij	*	*
!	!	!LO:TX:t=P:problem=kreska pseudotaktowa	!	!	!	!	!
.	.	2B-/	-ti-	.	.	.	.
.	.	.	.	.	.	4f\	-ti-
*lig	*	*lig	*	*	*	*	*
1A	il-	1c	-mo-	1r	.	2e,/	-b(us)
!	!	!	!	!	!	!LO:TX:t=P:problem=kreska pseudotaktowa	!
.	.	.	.	.	.	2a\	in
=50-	=50-	=50-	=50-	=50-	=50-	=50-	=50-
*	*	*col	*	*	*	*	*
1B-	.	2.d\	.	2r	.	2a\	teſ-
*	*	*Xlig	*	*	*	*	*
!	!	!	!	!LO:TX:t=P:problem=kreska pseudotaktowa	!	!	!
.	.	.	.	2d\	in	2g\	-ti-
.	.	4d\	-ni-	.	.	.	.
*Xlig	*	*	*	*	*	*	*
*	*	*Xcol	*	*	*	*	*
2.A/	.	2.c/	-um-	2e\	teſ-	1.a	-mo-
.	.	.	.	2e\	-ti-	.	.
!	!	!LO:TX:t=P:problem=kreska pseudotaktowa	!	!	!	!	!
4G/	.	4B-/	.	.	.	.	.
=51-	=51-	=51-	=51-	=51-	=51-	=51-	=51-
2F,</	-lis	2A/	.	2f\	-mo-	.	.
*	*Xij	*	*	*	*	*	*
!LO:TX:t=P:problem=kreska pseudotaktowa	!	!	!	!LO:TX:t=P:problem=kreska pseudotaktowa	!	!LO:TX:t=P:problem=kreska pseudotaktowa	!
2G/	et	1d	-il-	2d\	-ni-	2g\	-ni-
2.E/	gen-	.	.	1e	-um	2.g\	-um
.	.	2c/	.	.	.	.	.
*custos:g	*	*	*	*	*	*	*
4E/	-ti-	.	.	.	.	4a\	.
=52-	=52-	=52-	=52-	=52-	=52-	=52-	=52-
!LO:TX:t=P:problem=kreska pseudotaktowa	!	!	!	!LO:TX:t=P:problem=kreska pseudotaktowa	!	!	!
!LO:LB:g=original	!	!	!	!	!	!	!
1D	-bus	2d,\	lis	1f	il-	2b-\	.
!	!	!LO:TX:t=P:problem=kreska pseudotaktowa	!	!	!	!	!
.	.	2A/	et	.	.	1a	il-
*	*	*lig	*	*	*	*	*
2r	.	1B-	gen-	2d\	-lis	.	.
*	*	*	*	*	*ij	*	*
2d\	in	.	.	2d\	in	2g\	.
=53-	=53-	=53-	=53-	=53-	=53-	=53-	=53-
*	*	*col	*	*	*	*	*
!	!	!	!	!	!	!LO:TX:t=P:problem=kreska pseudotaktowa	!
2d\	teſ-	2.A/	.	2e\	teſ-	1a	-lis
!LO:TX:t=P:problem=kreska pseudotaktowa	!	!	!	!LO:TX:t=P:problem=kreska pseudotaktowa	!	!	!
2c\	-ti-	.	.	2f\	-ti-	.	.
*	*	*Xlig	*	*	*	*	*
.	.	4A/	-ti-	.	.	.	.
*	*	*Xcol	*	*lig	*	*	*
2.B-\	-mo-	2G/	-bus	1g	-mo-	2r	.
!	!	!LO:TX:t=P:problem=kreska pseudotaktowa	!	!	!	!	!
.	.	2d\	in	.	.	2d/	in
4B-\	-ni-	.	.	.	.	.	.
=54-	=54-	=54-	=54-	=54-	=54-	=54-	=54-
*	*	*	*	*col	*	*	*
1A	-um	2c/	teſ-	2.a\	.	2e/	teſ-
!	!	!	!	!	!	!LO:TX:t=P:problem=kreska pseudotaktowa	!
.	.	2A/	-ti-	.	.	2f\	-ti-
*	*	*	*	*Xlig	*	*	*
!	!	!	!	!LO:TX:t=P:problem=kreska pseudotaktowa	!	!	!
.	.	.	.	4a\	-nium	.	.
*	*	*	*	*Xcol	*	*	*
!LO:TX:t=P:problem=kreska pseudotaktowa	!	!	!	!	!	!	!
1G	il-	2.B-/	-mo-	2d\	il-	2.g\	-mo-
.	.	.	.	2.d,<\	-lis	.	.
*	*	*	*	*	*Xij	*	*
!	!	!LO:TX:t=P:problem=kreska pseudotaktowa	!	!	!	!	!
.	.	4B-/	-ni-	.	.	4g\	-ni-
=55-	=55-	=55-	=55-	=55-	=55-	=55-	=55-
*	*	*	*	*	*	*custos:a	*
2.D/	-lis	2A/	-um	.	.	2f\	-um
.	.	.	.	4d\	et	.	.
!	!	!	!	!	!	!LO:LB:g=original	!
!	!	!LO:TX:t=P:problem=kreska pseudotaktowa	!	!LO:TX:t=P:problem=kreska pseudotaktowa	!	!	!
.	.	2d\	il-	2f\	gen-	2.a\	il-
4E/	.	.	.	.	.	.	.
2F/	et	2c/	-lis	4f\	.	.	.
.	.	.	.	4e\	.	4a\	-lis
!LO:TX:t=P:problem=kreska pseudotaktowa	!	!	!	!	!	!LO:TX:t=P:problem=kreska pseudotaktowa	!
2G/	.	1B-/	et	4d\	.	2g\	et
!	!	!	!	!LO:TX:t=P:problem=kreska pseudotaktowa	!	!	!
.	.	.	.	4c/	.	.	.
=56-	=56-	=56-	=56-	=56-	=56-	=56-	=56-
1.D	gen-	.	.	1.d	.	2f\	gen-
.	.	4A/	gen-	.	.	1g	.
!	!	!LO:TX:t=P:problem=kreska pseudotaktowa	!	!	!	!	!
.	.	4G/	.	.	.	.	.
.	.	2A/	.	.	.	.	.
2D/	-ti-	2A/	-ti-	2d\	-ti-	2f\	-ti-
=57-	=57-	=57-	=57-	=57-	=57-	=57-	=57-
0G	-bus.	0G	-b(us)	0d	-bus	0g;<	-bus
!LO:LB:g=original	!	!LO:LB:g=original	!	!LO:PB:g=original	!	!LO:LB:g=original	!
=||	=||	=-	=-	=||	=||	=||	=||
*-	*-	*-	*-	*-	*-	*-	*-
!!!system-decoration: [(s1,s2,s3,s4)]
!!!ENC: Marta Chmielewska
!!!END: 2021-03-17
!!!RDF**kern: < = below
!!!RDF**kern: > = above
!!!ENC: Berenika Jozajtis
!!!END: 2021-03-02
